public/img/ember-icon.svg

<svg width="40" height="40" viewBox="0 0 40 40" fill="none" xmlns="http://www.w3.org/2000/svg">
<g clip-path="url(#clip0_35_146)">
<path d="M0 0H40V40H0V0ZM20.2569 26.7531C16.4947 26.8475 16.8906 24.3762 16.8906 24.3762C16.8906 24.3762 30.6262 19.6756 26.8812 10.3906C25.1978 8.00187 23.2422 7.25125 20.4741 7.30625C17.7053 7.36 14.2959 9.04844 12.0697 14.0444C11.0078 16.4288 10.6472 18.6872 10.4306 20.3988C10.4306 20.3988 7.99781 20.8872 6.69469 19.8038C5.3925 18.7188 4.70719 19.8038 4.70719 19.8038C4.70719 19.8038 2.46406 22.4288 4.69125 23.2984C6.9175 24.1678 10.3844 24.3434 10.3844 24.3434H10.3828C10.7019 26.6553 11.4872 28.8778 14.3416 30.7341C19.1278 33.8481 26.2306 30.5591 26.2306 30.5591C30.4875 28.78 33.315 26.0256 34.52 24.6841C34.707 24.4759 34.8081 24.2046 34.8028 23.9249C34.7975 23.6451 34.6863 23.3778 34.4916 23.1769L33.1053 21.7362C32.9125 21.5352 32.6508 21.4143 32.3727 21.3979C32.0945 21.3815 31.8205 21.4708 31.6053 21.6478C29.7538 23.1644 24.8866 26.7531 20.2569 26.7531ZM16.2388 20.1831C16.4022 13.7222 20.6366 10.8987 22.1031 12.3122C23.5697 13.7222 23.0256 16.7622 20.2569 18.6625C17.4887 20.5638 16.2388 20.1831 16.2388 20.1831Z" fill="#121212"/>
</g>
<defs>
<clipPath id="clip0_35_146">
<rect width="40" height="40" fill="white"/>
</clipPath>
</defs>
</svg>

<svg width="40" height="40" fill="none" xmlns="http://www.w3.org/2000/svg"><g clip-path="url(#clip0_35_146)"><path d="M0 0h40v40H0V0zm20.257 26.753c-3.762.095-3.366-2.377-3.366-2.377s13.735-4.7 9.99-13.985C25.198 8 23.242 7.25 20.474 7.306c-2.769.054-6.178 1.742-8.404 6.738-1.062 2.385-1.423 4.643-1.64 6.355 0 0-2.432.488-3.735-.595-1.303-1.085-1.988 0-1.988 0s-2.243 2.625-.016 3.494c2.227.87 5.693 1.045 5.693 1.045h-.001c.319 2.312 1.104 4.535 3.959 6.391 4.786 3.114 11.889-.175 11.889-.175 4.256-1.779 7.084-4.533 8.289-5.875a1.105 1.105 0 00-.028-1.507l-1.387-1.44a1.105 1.105 0 00-1.5-.09c-1.851 1.517-6.718 5.106-11.348 5.106zm-4.018-6.57c.163-6.46 4.398-9.284 5.864-7.87 1.467 1.41.923 4.45-1.846 6.35-2.768 1.9-4.018 1.52-4.018 1.52z" fill="#121212"/></g><defs><clipPath id="clip0_35_146"><path fill="#fff" d="M0 0h40v40H0z"/></clipPath></defs></svg>
